X:1
T:Chi vol salir'
T:Giovanni Animuccia
T:Source : Primo libro delle Laude spirituali a tre voci---Roma---A.Gardano---1583. Editor : André Vierendeels (22/11/17). Notes : Original clefs : G2, G2, C3 Original note values have been halved in 3-beat measures Editorial accidentals above the staff Dotted brackets indicate black notes Dialogo : Guida & Pellegrino
T:Chi vol salir'
T:©
T:©
C:Animuccia
Z:©
%%score [ 1 2 3 ]
L:1/8
Q:1/4=120
M:2/2
K:F
V:1 treble nm="Soprano 1" snm="S 1"
V:2 treble nm="Soprano 2" snm="S 2"
V:3 treble nm="Alto" snm="A"
V:1
"^1)""^GUI:" c4 c4 | c2 d4 d2 | c4 c4 | z2 d2 d2 d2 | c4 A4 | A4 A4 |[M:3/4] z2 f4 | e4 e2 | %8
w: Chi vol|sa- lir' al|cie- lo,|do- ve si|ve- de|Di- o,|as-|col- t'il|
w: Gran tem-|po'è ch'io n'ho|vo- glia,|pe- ro ch'in|que- sta|ter- ra,|non|tro- vo'al-|
 d4 d2 | c4 !fermata!c2 :| %10
w: par- lar|mi- o.|
w: tro che|guer- ra.|
V:2
"^2)""^1)""^GUI:""^PEL:" A4 A4 | A2 B4 B2 | A4 A4 | z2 B2 B2 B2 | A4 G4 | ^F4 F4 |[M:3/4] z2 d4 | %7
w: Chi vol|sa- lir' al|cie- lo,|do- ve si|ve- de|Di- o,|as-|
w: Tu non|po- trai fa-|li- re|per que- sto'er-|to sen-|tie- ro,|se|
 c4 c2 | B4 B2 | c4 !fermata!c2 :| %10
w: col- t'il|par- lar|mi- o.|
w: non vai|ben leg-|gie- ro.|
V:3
"^3)""^1)""^4)""^GUI:""^GUI:""^PEL:" F4 F4 | F2 B,4 B,2 | F4 F4 | z2 B,2 B,2 B,2 | F4 G4 | D4 D4 | %6
w: Chi vol|sa- lir' al|cie- lo,|do- ve si|ve- der|Di- o,|
w: Ec- co,|ch'io mi svil-|lup- po,|d'o- gn'im- pic-|cio del|mon- do,|
[M:3/4] z2 B,4 | C4 C2 | G4 G2 | C4 !fermata!C2 :| %10
w: as-|col- t'il|par- lar|mi- o|
w: che|mi ti-|ra- v'al|fon- do.|

